src/assets/img/jk-object/decoration-icon/invalid-name-29.svg

<svg xmlns="http://www.w3.org/2000/svg" width="32" height="32" viewBox="0 0 32 32">
    <g fill="none" fill-rule="evenodd" stroke="#898989">
        <path d="M.5.5h7v31h-7zM12.5.5h7v31h-7zM24.5.5h7v31h-7z"/>
    </g>
</svg>

<svg xmlns="http://www.w3.org/2000/svg" width="32" height="32" viewBox="0 0 32 32">
    <g fill="none" fill-rule="evenodd" stroke="#898989">
        <path d="M.5.5H7.5V31.5H.5zM12.5.5H19.5V31.5H12.5zM24.5.5H31.5V31.5H24.5z"/>
    </g>
</svg>
